icon-themes/colibre_svg/sd/res/pubdes.svg

<svg viewBox="0 0 90 90" xmlns="http://www.w3.org/2000/svg"><g stroke-width="3.185185"><path d="m9.37037 18.481481v57.333333l70.07494-.000361-.00087-57.332972z" fill="#fafafa"/><path d="m6.18555 15.296875v63.703125h76.44345l-.00009-63.703125zm3.18554 3.185547h70.07422v57.332031h-70.07422z" fill="#3a3a38"/><path d="m3 2.5555548h82.81481v6.3703704h-82.81481z" fill="#1e8bcd"/><path d="m15.74074 28.037036h57.33333v6.370371h-57.33333z" fill="#fb983b"/><g fill="#3a3a38"><path d="m15.74074 40.777777h3.18519v3.185185h-3.18519z"/><path d="m15.74074 50.333333h3.18519v3.185185h-3.18519z"/><path d="m15.74074 59.888888h3.18519v3.185186h-3.18519z"/><path d="m22.11111 40.777777h38.22222v3.185185h-38.22222z"/><path d="m22.11111 59.888888h15.92593v3.185186h-15.92593z"/><path d="m22.11111 50.333333h19.11111v3.185185h-19.11111z"/></g></g></svg>

<svg viewBox="0 0 90 90" xmlns="http://www.w3.org/2000/svg">
  <path
     style="fill:#ffffff;stroke-width:3.18518519"
     d="m 9.37037,18.481481 v 57.333333 l 70.07494,-3.61e-4 -8.7e-4,-57.332972 z"
     />
  <path
     style="fill:#808080;stroke-width:3.18518519"
     d="M 6.18555,15.296875 V 79 H 82.629 v 0 l -9e-5,-63.703125 z m 3.18554,3.185547 H 79.44531 V 75.814453 H 9.37109 Z"
     />
  <path
     style="fill:#4d82b8;stroke-width:3.18518519"
     d="M 3,2.5555548 H 85.81481 V 8.9259252 H 3 Z"
     />
  <path
     style="fill:#eac282;stroke-width:3.18518519"
     d="m 15.74074,28.037036 h 57.33333 v 6.370371 H 15.74074 Z"
     />
  <path
     style="fill:#808080;stroke-width:3.18518519"
     d="m 15.74074,40.777777 h 3.18519 v 3.185185 h -3.18519 z"
     />
  <path
     style="fill:#808080;stroke-width:3.18518519"
     d="m 15.74074,50.333333 h 3.18519 v 3.185185 h -3.18519 z"
     />
  <path
     style="fill:#808080;stroke-width:3.18518519"
     d="m 15.74074,59.888888 h 3.18519 v 3.185186 h -3.18519 z"
     />
  <path
     style="fill:#808080;stroke-width:3.18518519"
     d="m 22.11111,40.777777 h 38.22222 v 3.185185 H 22.11111 Z"
     />
  <path
     style="fill:#808080;stroke-width:3.18518519"
     d="m 22.11111,59.888888 h 15.92593 v 3.185186 H 22.11111 Z"
     />
  <path
     style="fill:#808080;stroke-width:3.18518519"
     d="m 22.11111,50.333333 h 19.11111 v 3.185185 H 22.11111 Z"
     />
</svg>
